to arcin :n :m :l
  if :n < :m [
    fd :l
    rt (:n ^ 1.3)
    arcin (:n + 1) :m :l
  ] 
end

to arcout :n :m :l
  if :n < :m [
    fd :l
    rt ((:m - :n) ^ 1.3)
    arcout (:n + 1) :m :l
  ] 
end

to doublearc :m :l
  arcin 0 :m :l
  arcout 0 :m :l
end

home
lt 90
bk 100
rt 90
clean 

ht
repeat 60 [
  doublearc 13 10
]
